src/icons/k8s.svg

<?xml version="1.0" encoding="UTF-8"?>
<svg xmlns="http://www.w3.org/2000/svg" xmlns:xlink="http://www.w3.org/1999/xlink" width="33" height="32" viewBox="0 0 33 32" version="1.1">
<g id="surface1">
<path style=" stroke:none;fill-rule:nonzero;fill:rgb(19.607843%,42.352942%,89.803922%);fill-opacity:1;" d="M 15.898438 0 C 15.613281 0.0195312 15.332031 0.09375 15.074219 0.21875 L 3.933594 5.523438 C 3.351562 5.800781 2.925781 6.328125 2.78125 6.957031 L 0.0546875 18.894531 C -0.078125 19.457031 0.03125 20.046875 0.355469 20.523438 C 0.394531 20.578125 0.433594 20.636719 0.472656 20.691406 L 8.171875 30.261719 C 8.578125 30.761719 9.191406 31.046875 9.835938 31.046875 L 22.183594 31.046875 C 22.828125 31.046875 23.441406 30.746094 23.847656 30.253906 L 31.539062 20.679688 C 31.945312 20.179688 32.09375 19.519531 31.941406 18.894531 L 29.195312 6.953125 C 29.050781 6.328125 28.625 5.800781 28.046875 5.523438 L 16.921875 0.21875 C 16.601562 0.0625 16.246094 -0.0117188 15.886719 0 Z M 15.898438 0 "/>
<path style="fill-rule:nonzero;fill:rgb(100%,100%,100%);fill-opacity:1;stroke-width:0.11;stroke-linecap:round;stroke-linejoin:round;stroke:rgb(100%,100%,100%);stroke-opacity:1;stroke-miterlimit:4;" d="M 16 4.066406 C 15.617188 4.09375 15.324219 4.421875 15.34375 4.808594 L 15.34375 4.996094 C 15.363281 5.207031 15.394531 5.417969 15.4375 5.628906 C 15.496094 6.027344 15.519531 6.433594 15.503906 6.835938 C 15.464844 6.96875 15.386719 7.089844 15.285156 7.183594 L 15.269531 7.464844 C 14.863281 7.5 14.464844 7.558594 14.066406 7.648438 C 12.402344 8.027344 10.882812 8.890625 9.714844 10.132812 L 9.472656 9.964844 C 9.34375 10.003906 9.199219 9.988281 9.078125 9.925781 C 8.753906 9.683594 8.453125 9.414062 8.183594 9.113281 C 8.046875 8.953125 7.898438 8.796875 7.746094 8.648438 L 7.597656 8.53125 C 7.464844 8.425781 7.304688 8.363281 7.132812 8.355469 C 6.929688 8.347656 6.730469 8.433594 6.601562 8.59375 C 6.378906 8.910156 6.453125 9.347656 6.765625 9.574219 L 6.90625 9.675781 C 7.082031 9.792969 7.265625 9.902344 7.457031 10 C 7.8125 10.195312 8.148438 10.429688 8.453125 10.699219 C 8.535156 10.8125 8.582031 10.945312 8.589844 11.082031 L 8.804688 11.28125 C 7.628906 13.046875 7.144531 15.1875 7.449219 17.289062 L 7.167969 17.367188 C 7.09375 17.484375 7 17.582031 6.882812 17.65625 C 6.492188 17.757812 6.09375 17.824219 5.6875 17.851562 C 5.472656 17.855469 5.261719 17.875 5.046875 17.902344 L 4.871094 17.941406 L 4.851562 17.941406 C 4.601562 17.976562 4.390625 18.148438 4.308594 18.390625 C 4.226562 18.628906 4.289062 18.894531 4.464844 19.074219 C 4.644531 19.253906 4.90625 19.316406 5.148438 19.238281 L 5.160156 19.238281 L 5.339844 19.21875 C 5.542969 19.160156 5.746094 19.085938 5.941406 19 C 6.316406 18.851562 6.703125 18.738281 7.101562 18.660156 C 7.238281 18.667969 7.371094 18.714844 7.484375 18.796875 L 7.78125 18.746094 C 8.433594 20.761719 9.796875 22.472656 11.621094 23.546875 L 11.5 23.804688 C 11.554688 23.917969 11.578125 24.050781 11.558594 24.179688 C 11.394531 24.5625 11.195312 24.925781 10.957031 25.269531 C 10.828125 25.441406 10.707031 25.617188 10.597656 25.804688 L 10.515625 25.984375 C 10.390625 26.203125 10.394531 26.472656 10.53125 26.683594 C 10.671875 26.894531 10.914062 27.011719 11.164062 26.984375 C 11.414062 26.957031 11.628906 26.789062 11.71875 26.550781 L 11.800781 26.382812 C 11.875 26.183594 11.941406 25.976562 11.992188 25.78125 C 12.167969 25.34375 12.265625 24.875 12.507812 24.585938 C 12.585938 24.511719 12.6875 24.464844 12.792969 24.445312 L 12.941406 24.171875 C 14.917969 24.933594 17.105469 24.9375 19.085938 24.1875 L 19.222656 24.445312 C 19.355469 24.464844 19.480469 24.539062 19.5625 24.648438 C 19.75 25.007812 19.902344 25.382812 20.015625 25.769531 C 20.070312 25.976562 20.132812 26.179688 20.210938 26.378906 L 20.292969 26.550781 C 20.382812 26.785156 20.597656 26.949219 20.847656 26.980469 C 21.097656 27.007812 21.34375 26.890625 21.480469 26.679688 C 21.617188 26.46875 21.625 26.199219 21.496094 25.980469 L 21.410156 25.800781 C 21.300781 25.617188 21.179688 25.4375 21.050781 25.269531 C 20.820312 24.933594 20.621094 24.582031 20.453125 24.210938 C 20.417969 24.074219 20.445312 23.929688 20.519531 23.8125 C 20.476562 23.726562 20.441406 23.636719 20.410156 23.542969 C 22.230469 22.457031 23.589844 20.742188 24.230469 18.722656 L 24.515625 18.773438 C 24.617188 18.679688 24.75 18.632812 24.886719 18.636719 C 25.285156 18.71875 25.671875 18.832031 26.050781 18.976562 C 26.246094 19.074219 26.445312 19.140625 26.648438 19.207031 C 26.695312 19.21875 26.765625 19.230469 26.820312 19.242188 L 26.832031 19.242188 C 27.074219 19.320312 27.335938 19.257812 27.515625 19.078125 C 27.691406 18.894531 27.75 18.632812 27.667969 18.394531 C 27.585938 18.15625 27.378906 17.980469 27.128906 17.945312 L 26.933594 17.898438 C 26.722656 17.871094 26.507812 17.855469 26.296875 17.851562 C 25.890625 17.824219 25.492188 17.757812 25.101562 17.652344 C 24.980469 17.585938 24.882812 17.484375 24.8125 17.363281 L 24.542969 17.285156 C 24.832031 15.1875 24.339844 13.054688 23.15625 11.292969 L 23.394531 11.074219 C 23.382812 10.9375 23.429688 10.800781 23.519531 10.699219 C 23.824219 10.433594 24.15625 10.203125 24.507812 10 C 24.699219 9.90625 24.882812 9.796875 25.058594 9.679688 L 25.207031 9.5625 C 25.425781 9.425781 25.546875 9.175781 25.519531 8.917969 C 25.488281 8.660156 25.316406 8.445312 25.074219 8.359375 C 24.828125 8.273438 24.558594 8.335938 24.375 8.519531 L 24.230469 8.636719 C 24.074219 8.785156 23.929688 8.941406 23.792969 9.101562 C 23.527344 9.40625 23.234375 9.679688 22.917969 9.925781 C 22.792969 9.976562 22.652344 9.992188 22.515625 9.96875 L 22.261719 10.148438 C 20.800781 8.617188 18.835938 7.671875 16.726562 7.480469 C 16.726562 7.378906 16.714844 7.230469 16.714844 7.183594 C 16.601562 7.105469 16.523438 6.984375 16.496094 6.851562 C 16.480469 6.449219 16.507812 6.042969 16.570312 5.644531 C 16.613281 5.445312 16.644531 5.226562 16.664062 5.011719 L 16.664062 4.8125 C 16.683594 4.425781 16.390625 4.097656 16.007812 4.070312 Z M 15.164062 9.230469 L 14.964844 12.722656 L 14.949219 12.722656 C 14.941406 12.941406 14.8125 13.125 14.617188 13.226562 C 14.421875 13.332031 14.191406 13.300781 14.019531 13.175781 L 11.15625 11.144531 C 12.066406 10.25 13.210938 9.625 14.457031 9.347656 C 14.691406 9.296875 14.925781 9.257812 15.164062 9.230469 Z M 16.832031 9.230469 C 18.339844 9.417969 19.738281 10.09375 20.832031 11.15625 L 17.996094 13.171875 C 17.820312 13.308594 17.582031 13.335938 17.378906 13.242188 C 17.175781 13.144531 17.046875 12.945312 17.042969 12.71875 Z M 10.113281 12.457031 L 12.734375 14.796875 L 12.734375 14.8125 C 12.894531 14.953125 12.964844 15.171875 12.917969 15.382812 C 12.871094 15.59375 12.710938 15.761719 12.503906 15.820312 L 12.503906 15.828125 L 9.140625 16.796875 C 8.976562 15.28125 9.316406 13.753906 10.117188 12.457031 Z M 21.863281 12.457031 C 22.660156 13.753906 23.011719 15.273438 22.867188 16.785156 L 19.5 15.816406 L 19.5 15.800781 C 19.292969 15.746094 19.128906 15.578125 19.082031 15.367188 C 19.035156 15.15625 19.105469 14.933594 19.269531 14.792969 L 21.871094 12.464844 Z M 15.460938 14.976562 L 16.535156 14.976562 L 17.1875 15.808594 L 16.953125 16.847656 L 15.988281 17.3125 L 15.023438 16.847656 L 14.796875 15.808594 Z M 18.894531 17.816406 C 18.941406 17.808594 18.996094 17.808594 19.03125 17.816406 L 22.496094 18.398438 C 21.996094 19.839844 21.011719 21.070312 19.722656 21.890625 L 18.382812 18.648438 C 18.308594 18.472656 18.324219 18.269531 18.425781 18.109375 C 18.527344 17.945312 18.699219 17.839844 18.890625 17.832031 Z M 13.074219 17.832031 C 13.269531 17.832031 13.449219 17.933594 13.558594 18.097656 C 13.664062 18.261719 13.683594 18.46875 13.605469 18.648438 L 13.605469 18.660156 L 12.273438 21.878906 C 11 21.0625 10.03125 19.847656 9.515625 18.421875 L 12.953125 17.839844 C 12.992188 17.835938 13.03125 17.835938 13.066406 17.839844 Z M 15.976562 19.230469 C 16.199219 19.222656 16.40625 19.34375 16.515625 19.539062 L 16.527344 19.539062 L 18.222656 22.59375 L 17.542969 22.792969 C 16.296875 23.078125 14.996094 23.011719 13.785156 22.601562 L 15.488281 19.542969 C 15.589844 19.363281 15.78125 19.253906 15.988281 19.25 Z M 15.976562 19.230469 "/>
</g>
</svg>

<svg xmlns="http://www.w3.org/2000/svg" width="33" height="32" stroke="#000" stroke-linecap="round" stroke-linejoin="round" fill="#fff" fill-rule="nonzero"><path d="M15.8975.0017a2.141 2.141 0 0 0-.8229.218L3.9319 5.5246a2.11 2.11 0 0 0-1.1498 1.4317L.0546 18.8949a2.06 2.06 0 0 0 .3 1.6267q.057.087.12.168l7.6984 9.572a2.13 2.13 0 0 0 1.6617.7839h12.3475c.6459.001 1.2578-.3 1.6637-.7929l7.6944-9.574c.4039-.4999.5549-1.1598.4-1.7857L29.1948 6.9543c-.145-.6278-.5699-1.1547-1.1498-1.4317L16.9203.2207c-.3206-.1581-.6757-.2334-1.0328-.219z" stroke="none" fill="#326ce5"/><path d="M15.9994 4.0669a.705.705 0 0 0-.6548.7399v.1879a5.626 5.626 0 0 0 .0919.6329c.0614.4001.0835.8053.066 1.2097a.73.73 0 0 1-.2179.345l-.015.2819c-.4048.0339-.8067.096-1.2028.186a8.562 8.562 0 0 0-4.3531 2.4845l-.24-.17c-.1319.04-.2739.025-.3949-.04-.3245-.2402-.6249-.5114-.8968-.8098a5.531 5.531 0 0 0-.4369-.4649l-.148-.118c-.1319-.1058-.294-.167-.4629-.175a.64.64 0 0 0-.5309.236c-.2259.3169-.152.7558.164.9828l.138.1a5.552 5.552 0 0 0 .5518.3229c.3566.1972.6911.4318.9978.6999a.739.739 0 0 1 .133.3839l.218.1999a8.619 8.619 0 0 0-1.3578 6.0048l-.2799.08c-.073.116-.17.215-.2859.288a6.227 6.227 0 0 1-1.1938.1969 5.593 5.593 0 0 0-.6399.05l-.1769.04h-.02a.67.67 0 0 0-.387 1.1318.67.67 0 0 0 .6839.1649h.013l.18-.02c.2029-.0599.4029-.1339.5979-.2179a6.233 6.233 0 0 1 1.1617-.3399c.1375.008.2699.0548.3819.1349l.3-.05c.6498 2.0166 2.0156 3.7253 3.8392 4.8021l-.122.2549a.667.667 0 0 1 .06.3759c-.1649.382-.3669.7479-.6029 1.0918-.1294.1706-.2489.3485-.3579.5329l-.085.18a.67.67 0 0 0 .6499 1.0008.67.67 0 0 0 .5529-.4319l.083-.17c.076-.2.1399-.4039.1919-.5999.177-.4369.273-.9058.5149-1.1957a.539.539 0 0 1 .286-.14l.1499-.273a8.618 8.618 0 0 0 6.1448.015l.133.255c.1359.0207.2582.0944.3399.2049a6.295 6.295 0 0 1 .4559 1.1198 5.556 5.556 0 0 0 .194.6109l.083.17c.0889.2357.3027.4016.5532.4292s.4952-.0876.6335-.2983a.67.67 0 0 0 .016-.7008l-.087-.18a5.516 5.516 0 0 0-.3579-.5309 7.072 7.072 0 0 1-.5999-1.0568.52.52 0 0 1 .068-.3999c-.0426-.0872-.0797-.177-.111-.2689a8.673 8.673 0 0 0 3.8223-4.8191l.2839.05a.53.53 0 0 1 .3729-.1379c.3961.0808.7847.1945 1.1618.3399.195.1.3949.166.5979.2299.048.013.118.024.1719.037h.013c.2407.0778.5046.0133.6823-.1665a.67.67 0 0 0-.3853-1.1302l-.194-.046a5.591 5.591 0 0 0-.6399-.05c-.4034-.0259-.8033-.0919-1.1937-.1969-.1207-.0676-.2204-.1673-.288-.288l-.2699-.08c.2878-2.0995-.2053-4.2318-1.3857-5.9918l.2359-.2179a.526.526 0 0 1 .124-.3779c.3068-.2633.6383-.4963.9898-.6959a5.573 5.573 0 0 0 .5519-.3229l.146-.118a.67.67 0 0 0-.1325-1.2018.67.67 0 0 0-.6964.161l-.1479.118c-.1544.1464-.3003.3017-.437.4649a6.229 6.229 0 0 1-.8728.8228c-.1278.0521-.2678.0673-.4039.044l-.2529.18a8.735 8.735 0 0 0-5.5339-2.6695c0-.1-.013-.2499-.015-.2969a.525.525 0 0 1-.218-.332 6.234 6.234 0 0 1 .076-1.2067c.043-.2.073-.4199.092-.6329v-.2a.704.704 0 0 0-.6549-.7398zm-.8338 5.165l-.1999 3.4923h-.0151c-.01.2159-.1369.3999-.3319.5038s-.4259.073-.5999-.0539l-2.8644-2.0296a6.859 6.859 0 0 1 3.3023-1.7987c.234-.05.4699-.0879.7069-.1139zm1.6677 0c1.5047.1869 2.9054.8628 3.9991 1.9236l-2.8374 2.0166a.59.59 0 0 1-.9538-.4519zm-6.7187 3.2263l2.6195 2.3375v.015a.59.59 0 0 1 .1834.5729c-.048.2101-.207.3772-.4144.4359v.01l-3.3613.9668a6.859 6.859 0 0 1 .9738-4.3391zm11.7506 0a6.978 6.978 0 0 1 1.0018 4.3261l-3.3663-.9698v-.013a.58.58 0 0 1-.4169-.4349.59.59 0 0 1 .186-.5739l2.5994-2.3265zm-6.4027 2.5195h1.0718l.6549.8318-.238 1.0398-.9628.4629-.9648-.4629-.2269-1.0398zm3.4333 2.8374c.045-.005.1-.005.135 0l3.4663.5849c-.4999 1.4397-1.4867 2.6695-2.7744 3.4923l-1.3398-3.2433c-.0747-.1766-.0589-.3785.0422-.5414a.59.59 0 0 1 .4667-.2775zm-5.8218.015a.59.59 0 0 1 .4839.268c.107.1639.124.3699.047.5499v.013l-1.3317 3.2173c-1.2745-.8172-2.2437-2.0321-2.7575-3.4563l3.4363-.5829a.562.562 0 0 1 .116 0zm2.9034 1.3997a.59.59 0 0 1 .5369.308h.013l1.6937 3.0564-.6769.1999c-1.2457.285-2.5465.218-3.7572-.1939l1.6996-3.0564a.59.59 0 0 1 .4999-.295z" stroke="#fff" stroke-width=".11"/></svg>
